app/resources/toolbar/save.svg

<?xml version="1.0" encoding="UTF-8" standalone="no"?>
<!-- Created with Inkscape (http://www.inkscape.org/) -->

<svg
   xmlns:dc="http://purl.org/dc/elements/1.1/"
   xmlns:cc="http://creativecommons.org/ns#"
   xmlns:rdf="http://www.w3.org/1999/02/22-rdf-syntax-ns#"
   xmlns:svg="http://www.w3.org/2000/svg"
   xmlns="http://www.w3.org/2000/svg"
   xmlns:sodipodi="http://sodipodi.sourceforge.net/DTD/sodipodi-0.dtd"
   xmlns:inkscape="http://www.inkscape.org/namespaces/inkscape"
   width="64"
   height="64"
   id="svg4152"
   version="1.1"
   inkscape:version="0.91 r13725"
   viewBox="0 0 64 64"
   sodipodi:docname="save.svg"
   inkscape:export-filename="/home/davi/git/wiRedPanda/app/resources/toolbar/save.png"
   inkscape:export-xdpi="90"
   inkscape:export-ydpi="90">
  <defs
     id="defs4154" />
  <sodipodi:namedview
     id="base"
     pagecolor="#ffffff"
     bordercolor="#666666"
     borderopacity="1.0"
     inkscape:pageopacity="0.0"
     inkscape:pageshadow="2"
     inkscape:zoom="5.5"
     inkscape:cx="-0.28277027"
     inkscape:cy="56.642046"
     inkscape:current-layer="layer1"
     showgrid="false"
     inkscape:document-units="px"
     inkscape:grid-bbox="true"
     inkscape:window-width="1920"
     inkscape:window-height="1016"
     inkscape:window-x="0"
     inkscape:window-y="28"
     inkscape:window-maximized="1">
    <inkscape:grid
       type="xygrid"
       id="grid4700" />
  </sodipodi:namedview>
  <metadata
     id="metadata4157">
    <rdf:RDF>
      <cc:Work
         rdf:about="">
        <dc:format>image/svg+xml</dc:format>
        <dc:type
           rdf:resource="http://purl.org/dc/dcmitype/StillImage" />
        <dc:title />
      </cc:Work>
    </rdf:RDF>
  </metadata>
  <g
     id="layer1"
     inkscape:label="Layer 1"
     inkscape:groupmode="layer">
    <rect
       style="opacity:1;fill:#bd2812;fill-opacity:1;stroke:#bd2812;stroke-width:3.56879997;stroke-linecap:round;stroke-linejoin:round;stroke-miterlimit:4;stroke-dasharray:none;stroke-opacity:1"
       id="rect4702"
       width="44.431202"
       height="44.431202"
       x="9.7844"
       y="9.7843981" />
    <path
       style="opacity:1;fill:#881c0c;fill-opacity:1;stroke:none;stroke-width:3;stroke-linecap:round;stroke-linejoin:round;stroke-miterlimit:4;stroke-dasharray:none;stroke-opacity:1"
       d="m 12.509833,31 c -0.764473,0 -1.381038,0.487433 -1.381038,1.091797 l 0,6.044922 0,16.771484 0,1.091797 1.381038,0 38.980335,0 1.381038,0 0,-1.091797 0,-16.771484 0,-6.044922 C 52.871206,31.487433 52.254641,31 51.490168,31 l -38.980335,0 z"
       id="rect4704"
       inkscape:connector-curvature="0" />
    <path
       style="opacity:1;fill:#881c0c;fill-opacity:1;stroke:none;stroke-width:3;stroke-linecap:round;stroke-linejoin:round;stroke-miterlimit:4;stroke-dasharray:none;stroke-opacity:1"
       d="m 15.5,9.136719 0,0.802734 0,12.31836 0,4.441406 C 15.5,27.143152 15.987433,27.5 16.591797,27.5 l 30.816406,0 C 48.012567,27.5 48.5,27.143152 48.5,26.699219 l 0,-4.441406 0,-12.31836 0,-0.802734 -1.091797,0 -30.816406,0 -1.091797,0 z m 21.492188,1.84375 7.015624,0 0,14.300781 -7.015624,0 0,-14.300781 z"
       id="rect4704-7"
       inkscape:connector-curvature="0" />
    <path
       inkscape:connector-curvature="0"
       style="opacity:1;fill:#d7d7d7;fill-opacity:1;stroke:none;stroke-width:3;stroke-linecap:round;stroke-linejoin:round;stroke-miterlimit:4;stroke-dasharray:none;stroke-opacity:1"
       d="m 15.5,8 0,0.8027344 0,12.3183596 0,4.441406 c 0,0.443933 0.487433,0.800781 1.091797,0.800781 l 30.816406,0 C 48.012567,26.363281 48.5,26.006433 48.5,25.5625 l 0,-4.441406 0,-12.3183596 L 48.5,8 47.408203,8 16.591797,8 15.5,8 Z m 21.492188,1.84375 7.015624,0 0,14.300781 -7.015624,0 0,-14.300781 z"
       id="rect4704-7-8" />
  </g>
</svg>

<?xml version="1.0" encoding="UTF-8" standalone="no"?>
<!-- Created with Inkscape (http://www.inkscape.org/) -->

<svg
   width="64"
   height="64"
   id="svg4152"
   version="1.1"
   inkscape:version="1.2 (dc2aedaf03, 2022-05-15)"
   viewBox="0 0 64 64"
   sodipodi:docname="save.svg"
   inkscape:export-filename="/home/davi/git/wiRedPanda/app/resources/toolbar/save.png"
   inkscape:export-xdpi="90"
   inkscape:export-ydpi="90"
   xmlns:inkscape="http://www.inkscape.org/namespaces/inkscape"
   xmlns:sodipodi="http://sodipodi.sourceforge.net/DTD/sodipodi-0.dtd"
   xmlns="http://www.w3.org/2000/svg"
   xmlns:svg="http://www.w3.org/2000/svg"
   xmlns:rdf="http://www.w3.org/1999/02/22-rdf-syntax-ns#"
   xmlns:cc="http://creativecommons.org/ns#"
   xmlns:dc="http://purl.org/dc/elements/1.1/">
  <defs
     id="defs4154" />
  <sodipodi:namedview
     id="base"
     pagecolor="#ffffff"
     bordercolor="#666666"
     borderopacity="1.0"
     inkscape:pageopacity="0.0"
     inkscape:pageshadow="2"
     inkscape:zoom="5.5"
     inkscape:cx="-3"
     inkscape:cy="56.727273"
     inkscape:current-layer="layer1"
     showgrid="false"
     inkscape:document-units="px"
     inkscape:grid-bbox="true"
     inkscape:window-width="3840"
     inkscape:window-height="2097"
     inkscape:window-x="-8"
     inkscape:window-y="-8"
     inkscape:window-maximized="1"
     inkscape:showpageshadow="2"
     inkscape:pagecheckerboard="0"
     inkscape:deskcolor="#d1d1d1">
    <inkscape:grid
       type="xygrid"
       id="grid4700" />
  </sodipodi:namedview>
  <metadata
     id="metadata4157">
    <rdf:RDF>
      <cc:Work
         rdf:about="">
        <dc:format>image/svg+xml</dc:format>
        <dc:type
           rdf:resource="http://purl.org/dc/dcmitype/StillImage" />
        <dc:title />
      </cc:Work>
    </rdf:RDF>
  </metadata>
  <g
     id="layer1"
     inkscape:label="Layer 1"
     inkscape:groupmode="layer"
     style="display:inline">
    <rect
       style="opacity:1;fill:#bd2812;fill-opacity:1;stroke:#bd2812;stroke-width:3.5688;stroke-linecap:round;stroke-linejoin:round;stroke-miterlimit:4;stroke-dasharray:none;stroke-opacity:1"
       id="rect4702"
       width="44.431202"
       height="44.431202"
       x="9.7844"
       y="9.7843981" />
    <path
       style="opacity:1;fill:#881c0c;fill-opacity:1;stroke:none;stroke-width:3;stroke-linecap:round;stroke-linejoin:round;stroke-miterlimit:4;stroke-dasharray:none;stroke-opacity:1"
       d="m 12.509833,31 c -0.764473,0 -1.381038,0.487433 -1.381038,1.091797 V 38.136719 54.908203 56 h 1.381038 38.980335 1.381038 V 54.908203 38.136719 32.091797 C 52.871206,31.487433 52.254641,31 51.490168,31 Z"
       id="rect4704"
       inkscape:connector-curvature="0" />
    <path
       style="opacity:1;fill:#881c0c;fill-opacity:1;stroke:none;stroke-width:3;stroke-linecap:round;stroke-linejoin:round;stroke-miterlimit:4;stroke-dasharray:none;stroke-opacity:1"
       d="m 15.5,9.136719 v 0.802734 12.31836 4.441406 C 15.5,27.143152 15.987433,27.5 16.591797,27.5 H 47.408203 C 48.012567,27.5 48.5,27.143152 48.5,26.699219 V 22.257813 9.939453 9.136719 H 47.408203 16.591797 Z m 21.492188,1.84375 h 7.015624 V 25.28125 h -7.015624 z"
       id="rect4704-7"
       inkscape:connector-curvature="0" />
    <path
       inkscape:connector-curvature="0"
       style="opacity:1;fill:#d7d7d7;fill-opacity:1;stroke:none;stroke-width:3;stroke-linecap:round;stroke-linejoin:round;stroke-miterlimit:4;stroke-dasharray:none;stroke-opacity:1"
       d="M 15.5,8 V 8.8027344 21.121094 25.5625 c 0,0.443933 0.487433,0.800781 1.091797,0.800781 H 47.408203 C 48.012567,26.363281 48.5,26.006433 48.5,25.5625 V 21.121094 8.8027344 8 H 47.408203 16.591797 Z m 21.492188,1.84375 h 7.015624 v 14.300781 h -7.015624 z"
       id="rect4704-7-8" />
  </g>
</svg>
